X:1
T:Title
%%score { ( 1 3 ) | 2 }
L:1/8
M:3/4
K:F
V:1 treble nm="Grand Piano"
V:3 treble 
V:2 bass 
V:1
 z2 z2[Q:1/4=100] c2 | c2 B2 A2 | A2 G2 F2 | F2 G2 F2 | E2 D2 C2 | F2 F2 F2 | F2 E2 F2 | %7
 [=B,FA]2 [B,FG]2 [DG]2 | [CEG]4 [Ec]2 | c2 B2 A2 | A2 G2 F2 | F2 G2 F2 | E2 D2 C2 | %13
 D2 [G,CE]2 [F,CF]2 | [DFG]2 [DFA]2 [DFB]2 | [FA]2 [FA]2 [EG]2 |[M:2/4] F4 |[M:1/4] c2 | %18
[M:3/4] c6- | c4 z2 | c6- | c4 z2 | [Fd]2 [Fd]2 [Fd]2 | c2 A2 F2 | [EG]6 | [Ec]4 [GB]2 | A2 A2 A2 | %27
 A2 c2 c2 | [Dc]2 [DFB]2 [DFB]2 | [Fd]6- |[M:7/8] [Fd]2 z2 [Fd]3 |[M:3/4] [Fc]2 .[CFA]2 [A,F]2 | %32
 [CFA]2 [CFA]3 [B,EG] |[M:2/4] [A,F]4 |] %34
V:2
 z2 z2 [F,A,F]2 | [F,A,F]2 [F,DF]2 [F,CF]2 | [F,CF]2 [F,B,E]2 [F,A,]2 | %3
 [F,A,C]2 [F,B,C]2 [F,A,C]2 | [C,G,C]2 [C,F,=B,]2 [C,E,]2 | [A,C]2 [G,B,C]2 [F,A,C]2 | %6
 [D,A,D]2 [D,G,D]2 [D,A,D]2 | G,,2 G,,2 G,,2 | C,4 [C,B,]2 | [F,A,F]2 [F,DF]2 [F,CF]2 | %10
 [F,CF]2 [F,B,E]2 [F,A,]2 | [F,A,C]2 [F,B,C]2 [F,A,C]2 | [C,G,C]2 [C,F,=B,]2 [C,E,]2 | %13
 [C,F,C]2 B,,2 A,,2 | B,,2 A,,2 G,,2 | [C,C]2 [C,C]2 [C,B,]2 |[M:2/4] [F,A,]4 |[M:1/4] z2 | %18
[M:3/4] z2 z2 [F,A,]2 | [C,G,]4 z2 | z2 z2 [C,B,]2 | [F,A,]4 [F,A,F]2 | [B,,B,]2 [B,,B,]2 [D,B,]2 | %23
 [F,A,F]2 [F,CF]2 [F,A,]2 | [C,C]6 | [C,G,]4 [E,C]2 | [F,CF]2 [F,CF]2 [F,CF]2 | %27
 [F,CF]2 [F,A,F]2 [F,A,_E]2 | [B,,B,]2 B,,2 B,,2 | [B,,B,]6- |[M:7/8] [B,,B,]2 z2 [B,,B,]3 | %31
[M:3/4] [C,A,]2 .C,2 D,2 | C,2 C,3 C, |[M:2/4] F,4 |] %34
V:3
 x6 | x6 | x6 | x6 | x6 | x6 | x6 | x6 | x6 | x6 | x6 | x6 | x6 | x6 | x6 | x6 |[M:2/4] x4 | %17
[M:1/4] x2 |[M:3/4] z2 z2 F2 | E4 c2 | z2 z2 G2 | F4 c2 | x6 | x6 | x6 | x6 | x6 | x6 | x6 | x6 | %30
[M:7/8] x7 |[M:3/4] x6 | x6 |[M:2/4] x4 |] %34

